famicom/_inc/system.svg

<svg xmlns="http://www.w3.org/2000/svg"><g fill="#fff"><path d="m0 0h31.857v11.103h-20.697v13.47h20.697v11.454h-20.697v23.937h-11.16z"/><path d="m68.085 59.964h-10.851v-9.333h-21.024l-6.228 9.333h-12.777l42.042-59.964h8.838zm-10.851-20.664v-17.496l-12.84 17.496z"/><path d="m72.336 0h12.588l17.748 40.308 17.874-40.308h12.714v59.964h-11.202v-30.231l-13.848 30.231h-11.328l-13.341-30.231v30.231h-11.205z"/><path d="m342.15 0h12.588l17.748 40.308 17.874-40.308h12.714v59.964h-11.202v-30.231l-13.848 30.231h-11.328l-13.344-30.231v30.231h-11.202z"/><path d="m136.794 0h11.595v59.964h-11.595z"/><path d="m151.584 0h11.592v49.035h15.108v10.929h-26.7z"/><path d="m165.402 0h12.882l12.183 24.573 11.829-24.573h12.765l-19.209 38.142v21.822h-11.241v-21.822z"/><path d="m278.082 16.539c-5.091-9.702-15.264-16.32-26.979-16.32-16.818 0-30.45 13.635-30.45 30.453 0 16.815 13.632 30.45 30.45 30.45 11.799 0 22.032-6.711 27.087-16.527l-13.797.114c-3.402 3.135-7.947 5.052-12.939 5.052-10.542 0-19.089-8.547-19.089-19.092s8.547-19.089 19.089-19.089c4.92 0 9.408 1.863 12.795 4.92z"/><path d="m308.214 61.281c-16.905 0-30.609-13.704-30.609-30.609 0-16.908 13.704-30.612 30.609-30.612s30.612 13.704 30.612 30.612c0 16.905-13.707 30.609-30.612 30.609zm19.485-30.609c0-10.698-8.673-19.368-19.368-19.368s-19.368 8.67-19.368 19.368c0 10.695 8.673 19.365 19.368 19.365s19.368-8.67 19.368-19.365z"/><path d="m426.957.006c10.146.816 18.126 9.312 18.126 19.668s-7.98 18.852-18.126 19.665l-8.766-.039v20.664h-11.241v-59.964h11.241zm-8.766 11.535v16.266l8.766-.009c3.837-.714 6.738-4.08 6.738-8.124s-2.901-7.407-6.738-8.124z"/><path d="m568.611 60.744h-11.124v-60.228l15.459-.021 8.763.006c10.146.816 18.129 9.309 18.129 19.668 0 8.463-5.328 15.681-12.813 18.483l12.975 22.092h-12.18l-18.183-31.065h-1.026zm13.101-32.451c3.834-.717 6.738-4.08 6.738-8.124s-2.904-7.41-6.738-8.127h-13.101v16.26z"/><path d="m459.738 34.65.006 8.766c.717 3.834 4.083 6.735 8.124 6.735 4.044 0 7.41-2.901 8.127-6.735l.009-8.766.027-34.134h11.514v34.134l-.009 8.766c-.816 10.146-9.309 18.126-19.668 18.126-10.356 0-18.849-7.98-19.665-18.126l.042-8.766-.021-34.134h11.553z"/><path d="m499.044 60.744h11.361v-48.876h10.188v-11.352h-31.386v11.352h9.837z"/><path d="m554.559 60.744h-31.212v-60.228h31.212v11.025h-20.028v14.301h20.028v11.244h-20.028v12.534h20.028z"/></g></svg>

<?xml version="1.0" encoding="utf-8"?>
<svg version="1.1" xmlns="http://www.w3.org/2000/svg">
  <g>
    <polygon points="0 0 31.857 0 31.857 11.103 11.16 11.103 11.16 24.573 31.857 24.573 31.857 36.027 11.16 36.027 11.16 59.964 0 59.964" style="fill: rgb(255, 255, 255);"/>
    <path d="M 68.085 59.964 L 57.234 59.964 L 57.234 50.631 L 36.21 50.631 L 29.982 59.964 L 17.205 59.964 L 59.247 0 L 68.085 0 L 68.085 59.964 Z M 57.234 39.3 L 57.234 21.804 L 44.394 39.3 L 57.234 39.3 Z" style="fill: rgb(255, 255, 255);"/>
    <polygon points="72.336 0 84.924 0 102.672 40.308 120.546 0 133.26 0 133.26 59.964 122.058 59.964 122.058 29.733 108.21 59.964 96.882 59.964 83.541 29.733 83.541 59.964 72.336 59.964" style="fill: rgb(255, 255, 255);"/>
    <polygon points="342.15 0 354.738 0 372.486 40.308 390.36 0 403.074 0 403.074 59.964 391.872 59.964 391.872 29.733 378.024 59.964 366.696 59.964 353.352 29.733 353.352 59.964 342.15 59.964" style="fill: rgb(255, 255, 255);"/>
    <rect x="136.794" width="11.595" height="59.964" style="fill: rgb(255, 255, 255);"/>
    <polygon points="151.584 0 163.176 0 163.176 49.035 178.284 49.035 178.284 59.964 151.584 59.964" style="fill: rgb(255, 255, 255);"/>
    <polygon points="165.402 0 178.284 0 190.467 24.573 202.296 0 215.061 0 195.852 38.142 195.852 59.964 184.611 59.964 184.611 38.142" style="fill: rgb(255, 255, 255);"/>
    <path d="M 278.247 44.484" style="fill: rgb(255, 255, 255);"/>
    <path d="M 278.082 16.539 C 272.991 6.837 262.818 0.219 251.103 0.219 C 234.285 0.219 220.653 13.854 220.653 30.672 C 220.653 47.487 234.285 61.122 251.103 61.122 C 262.902 61.122 273.135 54.411 278.19 44.595 L 264.393 44.709 C 260.991 47.844 256.446 49.761 251.454 49.761 C 240.912 49.761 232.365 41.214 232.365 30.669 C 232.365 20.124 240.912 11.58 251.454 11.58 C 256.374 11.58 260.862 13.443 264.249 16.5 L 278.082 16.539 Z" style="fill: rgb(255, 255, 255);"/>
    <path d="M 308.214 61.281 C 291.309 61.281 277.605 47.577 277.605 30.672 C 277.605 13.764 291.309 0.06 308.214 0.06 C 325.119 0.06 338.826 13.764 338.826 30.672 C 338.826 47.577 325.119 61.281 308.214 61.281 Z M 327.699 30.672 C 327.699 19.974 319.026 11.304 308.331 11.304 C 297.636 11.304 288.963 19.974 288.963 30.672 C 288.963 41.367 297.636 50.037 308.331 50.037 C 319.026 50.037 327.699 41.367 327.699 30.672 Z" style="fill: rgb(255, 255, 255);"/>
    <path d="M 426.957 0.006 C 437.103 0.822 445.083 9.318 445.083 19.674 C 445.083 30.03 437.103 38.526 426.957 39.339 L 418.191 39.3 L 418.191 59.964 L 406.95 59.964 L 406.95 0 L 418.191 0 L 426.957 0.006 Z M 418.191 11.541 L 418.191 27.807 L 426.957 27.798 C 430.794 27.084 433.695 23.718 433.695 19.674 C 433.695 15.63 430.794 12.267 426.957 11.55 L 418.191 11.541 Z" style="fill: rgb(255, 255, 255);"/>
    <path d="M 568.611 60.744 L 557.487 60.744 L 557.487 0.516 L 572.946 0.495 L 581.709 0.501 C 591.855 1.317 599.838 9.81 599.838 20.169 C 599.838 28.632 594.51 35.85 587.025 38.652 L 600 60.744 L 587.82 60.744 L 569.637 29.679 L 568.611 29.679 L 568.611 60.744 Z M 561.702 60.462 M 572.946 60.462 M 581.712 28.293 C 585.546 27.576 588.45 24.213 588.45 20.169 C 588.45 16.125 585.546 12.759 581.712 12.042 L 568.611 12.042 L 568.611 28.302 L 581.712 28.293 Z" style="fill: rgb(255, 255, 255);"/>
    <path d="M 476.031 23.406 M 476.031 23.406 M 459.777 23.406 M 459.738 34.65 M 459.738 34.65 L 459.744 43.416 C 460.461 47.25 463.827 50.151 467.868 50.151 C 471.912 50.151 475.278 47.25 475.995 43.416 L 476.004 34.65 L 476.031 0.516 L 487.545 0.516 L 487.545 34.65 L 487.536 43.416 C 486.72 53.562 478.227 61.542 467.868 61.542 C 457.512 61.542 449.019 53.562 448.203 43.416 L 448.245 34.65 L 448.224 0.516 L 459.777 0.516 L 459.738 34.65 Z" style="fill: rgb(255, 255, 255);"/>
    <polygon points="499.044 60.744 510.405 60.744 510.405 11.868 520.593 11.868 520.593 0.516 489.207 0.516 489.207 11.868 499.044 11.868" style="fill: rgb(255, 255, 255);"/>
    <polygon points="554.559 60.744 523.347 60.744 523.347 0.516 554.559 0.516 554.559 11.541 534.531 11.541 534.531 25.842 554.559 25.842 554.559 37.086 534.531 37.086 534.531 49.62 554.559 49.62" style="fill: rgb(255, 255, 255);"/>
    <path d="M 568.611 29.733" style="fill: rgb(255, 255, 255);"/>
  </g>
</svg>
